src/common/images/douban-logo.svg

<?xml version="1.0" encoding="UTF-8"?>
<svg xmlns="http://www.w3.org/2000/svg" xmlns:xlink="http://www.w3.org/1999/xlink" width="548pt" height="116pt" viewBox="0 0 548 116" version="1.1">
<g id="surface1">
<path style=" stroke:none;fill-rule:nonzero;fill:rgb(18.039216%,58.823529%,23.921569%);fill-opacity:1;" d="M 65.023438 30.160156 L 18.574219 30.160156 L 18.574219 46.183594 L 65.023438 46.183594 Z M 9.105469 21.78125 L 74.390625 21.78125 L 74.390625 54.558594 L 9.105469 54.558594 Z M 2.234375 4.648438 L 81.265625 4.648438 L 81.265625 13.035156 L 2.234375 13.035156 Z M 24.335938 55.953125 C 27.796875 60.785156 30.894531 66.625 33.628906 73.449219 L 50.15625 73.449219 C 53.429688 68.183594 56.308594 62.34375 58.777344 55.953125 L 68.277344 59.214844 C 65.792969 64.601562 63.113281 69.355469 60.269531 73.449219 L 83.5 73.449219 L 83.5 81.742188 L 0 81.742188 L 0 73.449219 L 24.335938 73.449219 C 22.101562 69.042969 19.199219 64.300781 15.59375 59.214844 Z M 24.335938 55.953125 "/>
<path style=" stroke:none;fill-rule:nonzero;fill:rgb(18.039216%,58.823529%,23.921569%);fill-opacity:1;" d="M 157.894531 19.273438 C 159.507812 24.371094 160.949219 30.535156 162.261719 37.792969 L 164.757812 37.792969 C 166.5625 32.152344 168.140625 25.847656 169.503906 18.90625 L 175.617188 21.042969 C 174.269531 27.308594 172.757812 32.902344 171.097656 37.792969 L 177.390625 37.792969 L 177.390625 45.433594 L 167.648438 45.433594 L 167.648438 56.695312 L 176.011719 56.695312 L 176.011719 63.953125 L 167.648438 63.953125 L 167.648438 85.460938 L 160.035156 85.460938 L 160.035156 63.953125 L 152.414062 63.953125 L 152.414062 56.695312 L 160.035156 56.695312 L 160.035156 45.433594 L 150.933594 45.433594 L 150.933594 37.792969 L 156.121094 37.792969 C 155.140625 32.835938 153.78125 27.375 152.03125 21.429688 Z M 165.136719 0 C 166.003906 3.101562 166.84375 6.621094 167.648438 10.515625 L 176.742188 10.515625 L 176.742188 17.785156 L 150.933594 17.785156 L 150.933594 10.515625 L 160.683594 10.515625 C 159.808594 7.167969 158.882812 4.011719 157.894531 1.023438 Z M 146.550781 0.652344 L 151.667969 6.519531 C 150.175781 7.273438 148.609375 7.945312 146.929688 8.558594 C 147.226562 24.578125 147.859375 37.304688 148.796875 46.742188 C 149.726562 56.605469 151.414062 66.972656 153.90625 77.828125 L 148.414062 83.222656 C 145.632812 70.195312 143.769531 58.039062 142.847656 46.742188 C 141.800781 35.878906 141.234375 23.804688 141.175781 10.515625 C 139.753906 10.957031 138.300781 11.359375 136.808594 11.734375 L 136.808594 71.394531 C 137.671875 71.164062 138.546875 70.910156 139.410156 70.660156 C 139.039062 67.800781 138.667969 65.074219 138.300781 62.476562 L 142.296875 61.445312 C 143.347656 67.648438 144.304688 74.789062 145.164062 82.847656 L 140.8125 83.972656 C 140.558594 81.617188 140.308594 79.253906 140.0625 76.898438 C 135.539062 78.445312 130.578125 79.71875 125.199219 80.710938 L 124.441406 73.828125 C 126.558594 73.644531 128.730469 73.296875 130.953125 72.792969 L 130.953125 12.847656 C 129.59375 13.035156 128.269531 13.226562 126.96875 13.40625 L 126.96875 47.566406 C 126.96875 53.289062 126.355469 59.417969 125.097656 66.003906 C 123.929688 72.097656 122.003906 78.324219 119.355469 84.722656 L 113.972656 79.222656 C 116.371094 74.132812 118.203125 68.492188 119.441406 62.285156 C 120.367188 56.507812 120.84375 51.601562 120.84375 47.566406 L 120.84375 7.273438 C 132.664062 6.015625 141.234375 3.820312 146.550781 0.652344 M 108.105469 0 C 108.910156 3.101562 109.699219 6.621094 110.433594 10.515625 L 119.355469 10.515625 L 119.355469 17.785156 L 93.625 17.785156 L 93.625 10.515625 L 103.011719 10.515625 C 102.253906 7.167969 101.421875 4.011719 100.488281 1.023438 Z M 100.863281 18.90625 C 102.28125 24.113281 103.550781 30.417969 104.675781 37.792969 L 107.652344 37.792969 C 109.070312 32.152344 110.332031 25.847656 111.453125 18.90625 L 117.582031 21.042969 C 116.460938 27.308594 115.226562 32.902344 113.855469 37.792969 L 118.328125 37.792969 L 118.328125 45.066406 L 109.507812 45.066406 C 109.449219 48.339844 109.316406 51.421875 109.128906 54.269531 C 112.292969 53.789062 115.226562 53.132812 117.953125 52.316406 L 117.953125 59.214844 C 115.59375 60.140625 112.371094 61.011719 108.292969 61.820312 C 107.988281 64.304688 107.582031 66.492188 107.078125 68.421875 C 105.84375 74.203125 102.933594 79.636719 98.351562 84.722656 L 93.253906 78.484375 C 96.53125 74.824219 98.75 70.910156 99.9375 66.75 C 100.238281 65.695312 100.519531 64.484375 100.761719 63.121094 C 98.171875 63.558594 95.417969 63.953125 92.5 64.332031 L 91.492188 55.953125 C 95.136719 55.832031 98.570312 55.613281 101.796875 55.308594 C 102.03125 52.1875 102.203125 48.78125 102.253906 45.066406 L 93.253906 45.066406 L 93.253906 37.792969 L 98.457031 37.792969 C 97.589844 32.648438 96.34375 27.066406 94.75 21.042969 Z M 100.863281 18.90625 "/>
<path style=" stroke:none;fill-rule:nonzero;fill:rgb(18.039216%,58.823529%,23.921569%);fill-opacity:1;" d="M 240.777344 112.058594 L 231.226562 112.058594 L 231.226562 24.90625 L 240.777344 24.90625 Z M 240.777344 112.058594 "/>
<path style=" stroke:none;fill-rule:nonzero;fill:rgb(18.039216%,58.823529%,23.921569%);fill-opacity:1;" d="M 232.070312 51.796875 C 224.621094 49.59375 205.257812 48.476562 194.554688 64.617188 C 180.933594 85.164062 189.507812 115.15625 206.222656 115.15625 C 224.34375 115.15625 231.226562 99.625 234.316406 94.742188 L 232.773438 81.785156 C 232.773438 81.785156 220.550781 107.695312 205.523438 104.242188 C 192.03125 101.144531 192.878906 50.671875 231.226562 61.652344 Z M 232.070312 51.796875 "/>
<path style=" stroke:none;fill-rule:nonzero;fill:rgb(18.039216%,58.823529%,23.921569%);fill-opacity:1;" d="M 374.515625 113.75 L 384.0625 113.75 L 384.0625 26.59375 L 374.515625 26.59375 Z M 374.515625 113.75 "/>
<path style=" stroke:none;fill-rule:nonzero;fill:rgb(18.039216%,58.823529%,23.921569%);fill-opacity:1;" d="M 382.027344 113.75 C 391.933594 113.75 411.246094 114.0625 420.734375 101.082031 C 435.28125 81.179688 425.785156 50.542969 409.074219 50.542969 C 390.953125 50.542969 384.0625 66.070312 380.976562 70.957031 L 382.523438 83.910156 C 382.523438 83.910156 394.746094 58.003906 409.769531 61.453125 C 423.261719 64.554688 424.730469 109.097656 383.476562 104.175781 Z M 382.027344 113.75 "/>
<path style=" stroke:none;fill-rule:nonzero;fill:rgb(15.294118%,59.607843%,80.784314%);fill-opacity:1;" d="M 488.863281 50.542969 L 479.3125 50.542969 L 479.3125 113.75 L 488.863281 113.75 Z M 488.863281 50.542969 "/>
<path style=" stroke:none;fill-rule:nonzero;fill:rgb(15.294118%,59.607843%,80.784314%);fill-opacity:1;" d="M 481.347656 50.542969 C 471.445312 50.542969 452.132812 50.226562 442.640625 63.207031 C 428.097656 83.113281 437.589844 113.75 454.304688 113.75 C 472.425781 113.75 479.3125 98.21875 482.402344 93.332031 L 480.855469 80.378906 C 480.855469 80.378906 468.632812 106.285156 453.605469 102.832031 C 440.113281 99.734375 438.644531 55.191406 479.898438 60.113281 Z M 481.347656 50.542969 "/>
<path style=" stroke:none;fill-rule:nonzero;fill:rgb(15.294118%,59.607843%,80.784314%);fill-opacity:1;" d="M 276.179688 106.410156 C 265.242188 106.410156 256.371094 95.863281 256.371094 82.847656 C 256.371094 69.835938 265.242188 59.285156 276.179688 59.285156 C 287.113281 59.285156 295.984375 69.835938 295.984375 82.847656 C 295.984375 95.863281 287.113281 106.410156 276.179688 106.410156 M 276.179688 49.699219 C 259.820312 49.699219 246.558594 64.539062 246.558594 82.847656 C 246.558594 101.15625 259.820312 116 276.179688 116 C 292.539062 116 305.800781 101.15625 305.800781 82.847656 C 305.800781 64.539062 292.539062 49.699219 276.179688 49.699219 "/>
<path style=" stroke:none;fill-rule:nonzero;fill:rgb(93.72549%,73.72549%,54.509804%);fill-opacity:1;" d="M 312.421875 50.542969 L 312.421875 94.523438 C 312.421875 104.449219 318.53125 115.15625 330.121094 115.15625 C 340.023438 115.15625 350.347656 105.4375 353.300781 100.507812 L 353.300781 87.273438 C 353.300781 87.273438 345.015625 104.59375 331.617188 104.738281 C 325.6875 104.800781 321.902344 100.859375 321.480469 92.199219 C 321.296875 88.40625 321.480469 50.542969 321.480469 50.542969 Z M 312.421875 50.542969 "/>
<path style=" stroke:none;fill-rule:nonzero;fill:rgb(93.72549%,73.72549%,54.509804%);fill-opacity:1;" d="M 362.359375 115.15625 L 353.300781 115.15625 L 353.300781 50.542969 L 362.359375 50.542969 Z M 362.359375 115.15625 "/>
<path style=" stroke:none;fill-rule:nonzero;fill:rgb(93.72549%,73.72549%,54.509804%);fill-opacity:1;" d="M 548 115.15625 L 548 71.171875 C 548 61.246094 541.890625 50.542969 530.300781 50.542969 C 520.398438 50.542969 510.070312 60.261719 507.121094 65.1875 L 507.121094 78.421875 C 507.121094 78.421875 515.410156 61.105469 528.8125 60.960938 C 534.738281 60.898438 538.519531 64.835938 538.941406 73.496094 C 539.125 77.292969 538.941406 115.15625 538.941406 115.15625 Z M 548 115.15625 "/>
<path style=" stroke:none;fill-rule:nonzero;fill:rgb(93.72549%,73.72549%,54.509804%);fill-opacity:1;" d="M 498.0625 50.542969 L 507.121094 50.542969 L 507.121094 115.15625 L 498.0625 115.15625 Z M 498.0625 50.542969 "/>
</g>
</svg>

<svg xmlns="http://www.w3.org/2000/svg" width="65" style="vertical-align:top" viewBox="178 22 372 96"><path fill="#2e963d" d="M240.777 112.059h-9.55V24.906h9.55Z"/><path fill="#2e963d" d="M232.07 51.797c-7.449-2.203-26.812-3.32-37.515 12.82-13.621 20.547-5.047 50.54 11.668 50.54 18.12 0 25.004-15.532 28.093-20.415l-1.543-12.957s-12.222 25.91-27.25 22.457c-13.492-3.097-12.644-53.57 25.704-42.59Z"/><path fill="#2798ce" d="M276.18 106.41c-10.938 0-19.809-10.547-19.809-23.562 0-13.012 8.871-23.563 19.809-23.563 10.933 0 19.804 10.55 19.804 23.563 0 13.015-8.87 23.562-19.804 23.562m0-56.71c-16.36 0-29.621 14.84-29.621 33.148S259.82 116 276.179 116s29.622-14.844 29.622-33.152c0-18.309-13.262-33.149-29.621-33.149"/><path fill="#efbc8b" d="M312.422 50.543v43.98c0 9.926 6.11 20.633 17.7 20.633 9.901 0 20.226-9.719 23.179-14.648V87.273s-8.285 17.32-21.684 17.465c-5.93.063-9.715-3.879-10.137-12.539-.183-3.793 0-41.656 0-41.656Z"/><path fill="#efbc8b" d="M362.36 115.156h-9.06V50.543h9.06Z"/><path fill="#2e963d" d="M374.516 113.75h9.546V26.594h-9.546Z"/><path fill="#2e963d" d="M382.027 113.75c9.907 0 29.22.313 38.707-12.668 14.547-19.902 5.051-50.539-11.66-50.539-18.12 0-25.012 15.527-28.097 20.414l1.546 12.953s12.223-25.906 27.247-22.457c13.492 3.102 14.96 47.645-26.293 42.723Z"/><path fill="#2798ce" d="M488.863 50.543h-9.55v63.207h9.55Z"/><path fill="#2798ce" d="M481.348 50.543c-9.903 0-29.215-.316-38.707 12.664-14.543 19.906-5.051 50.543 11.664 50.543 18.12 0 25.007-15.531 28.097-20.418l-1.547-12.953s-12.222 25.906-27.25 22.453c-13.492-3.098-14.96-47.64 26.293-42.719Z"/><path fill="#efbc8b" d="M548 115.156V71.172c0-9.926-6.11-20.629-17.7-20.629-9.902 0-20.23 9.719-23.179 14.645v13.234s8.29-17.317 21.692-17.461c5.925-.063 9.707 3.875 10.128 12.535.184 3.797 0 41.66 0 41.66ZM498.063 50.543h9.058v64.613h-9.058Z"/></svg>
